**kern	**silbe
*ICvox	*
*D:	*
*M4/4	*
*clefF4	*
r;	.
=1	=1
1r	.
=2	=2
1r	.
=3	=3
1r	.
=4	=4
1r	.
=5	=5
1r	.
=6	=6
1r	.
=7	=7
1r	.
=8	=8
1r	.
=9	=9
4r	.
8r	.
8D	I
8F#	walk
4G	a-
[8A	-long
=10	=10
8A]	_
4F#	the
[8A	ci
8A]	_
4B	ty
[8c	streets
=11	=11
8c]	_
4c	you
[8B	used
8B]	_
4A	to
[8G	walk
=12	=12
8G]	_
4A	a-
[8G	-long
8G]	_
4F#	with
[8E	me
=13	=13
4E]	_
4r	.
2r	.
=14	=14
4r	.
8r	.
8D	And
8F#	ev-
4G	-'ry
[8A	step
=15	=15
8A]	_
4F#	I
[8A	take
8A]	_
4B	re-
[8c	-minds
=16	=16
8c]	_
4c	me
[8B	of
8B]	_
4A	just
[8G	how
=17	=17
4G]	_
8r	.
8D	we
4G	used
8A	to
8Bq	_
[8c	be
=18	=18
8c]	_
8B	_
8r	.
8G	Oh,
4B	how
4c#	can
=19	=19
2d	I
4r	.
8r	.
8c#	for-
=20	=20
8dq	_
4e	-get
4d	you,
2A	girl
=21	=21
4r	.
8r	.
8A	When
4d	there
4e	is
=22	=22
4f#	al-
4f#	-ways
4g	some-
8f#	-thing
[8e	there
=23	=23
8e]	_
4f#	to
8g	re-
8eq	_
4f#	-mind
8e	me
[8d	_
=24	=24
4d]	_
4r	.
2r	.
=25	=25
1r	.
=26	=26
4f#	Al-
4f#	-ways
4g	some-
8a	-thing
8f#q	_
[8e	there
=27	=27
4e]	_
8d	to
8B	re-
8e#q	_
4f#	-mind
8e#q	_
[4f#	me
=28	=28
4.f#]	_
8r	.
2r	.
=29	=29
1r	.
=30	=30
4r	.
8r	.
8D	As
8F#	sha-
4G	-dows
[8A	fall,
=31	=31
4A]	_
8F#	I
[8A	pass
8A]	_
4B	a
[8c	small
=32	=32
8c]	_
4c	ca-
[8B	-fe
8B]	_
8A	where
4r	.
=33	=33
4G	we
4A	would
4G	dance
8F#	at
[8E	night
=34	=34
4E]	_
4r	.
2r	.
=35	=35
4r	.
8r	.
8D	And
8F#	I
4G	can't
[8A	help
=36	=36
8A]	_
8r	.
8F#	re-
[8A	-call
8A]	_
4B	ing
8r	.
=37	=37
8c	how
4c	it
[8B	felt
4B]	_
8D	_
8G	to
=38	=38
4D	kiss
8r	.
8D	and
4G	hold
8A	you
8Bq	_
[8c	tight
=39	=39
8c]	_
8B	_
8r	.
8G	Oh,
4B	how
4c#	can
=40	=40
2d	I
4r	.
8r	.
8c#	for-
=41	=41
8dq	_
4e	-get
4d	you,
2A	girl
=42	=42
4r	.
8r	.
8A	When
4d	there
4e	is
=43	=43
4f#	al-
4f#	-ways
4g	some-
8f#	-thing
[8e	there
=44	=44
8e]	_
4f#	to
8g	re-
8eq	_
4f#	-mind
8e	me
[8d	_
=45	=45
4d]	_
4r	.
2r	.
=46	=46
1r	.
=47	=47
4f#	Al-
4f#	-ways
4g	some-
8a	-thing
8f#q	_
[8e	there
=48	=48
4e]	_
8d	to
8B	re-
8e#q	_
4f#	-mind
8e#q	_
[4f#	me
=49	=49
4.f#]	_
8r	.
2r	.
=50	=50
4r	.
8r	.
8f	I
4e	_
4d	was
=51	=51
2.c#	born
8c#	to
8d	_
=52	=52
4B	love
[4F#	her
2F#]	_
=53	=53
4r	.
8r	.
8F#	and
4B	I
4d	will
=54	=54
8e#q	_
[2f#	ne
8f#]	_
8g	ver
4f#	be
=55	=55
4e	free
8r	.
8A	you'll
8B	al-
8d	-ways
8d	be
8d	a
=56	=56
8dq	_
4.e	part
[8d	of
8d]	_
4.d	me
=57	=57
4r	.
8r	.
8D	Whoa,
8E	_
8F#	_
8E	whoa,
8D	_
=58	=58
8E	whoa
[4.F#	_
4F#]	_
4r	.
=59	=59
1r	.
=60	=60
1r	.
=61	=61
1r	.
=62	=62
1r	.
=63	=63
1r	.
=64	=64
1r	.
=65	=65
1r	.
=66	=66
1r	.
=67	=67
1r	.
=68	=68
1r	.
=69	=69
1r	.
=70	=70
1r	.
=71	=71
1r	.
=72	=72
1r	.
=73	=73
4r	.
8r	.
8D	If
8F#	you
4G	should
8G	find
=74	=74
4A	_
8F#	you
[8A	miss
8A]	_
4B	the
8Bq	_
[8c	sweet
=75	=75
8c]	_
4c	and
[8B	ten
8B]	_
4A	der
[8G	love
=76	=76
8G]	_
4A	we
[8G	used
8G]	_
4F#	to
[8E	share
=77	=77
2E]	_
2r	.
=78	=78
4r	.
8r	.
8D	just
8F#	go
4G	back
[8A	to
=79	=79
8A]	_
4F#	the
[8A	pla
8A]	_
4B	ces
8r	.
=80	=80
4c	where
8c	we
[8B	used
8B]	_
4A	to
[8G	go
=81	=81
4G]	_
8r	.
8D	and
4G	I'll
8A	be
8Bq	_
[8c	there
=82	=82
8c]	_
8B	_
8r	.
8G	Oh,
4B	how
4c#	can
=83	=83
2d	I
4r	.
8r	.
8c#	for-
=84	=84
8dq	_
4e	-get
4d	you,
2A	girl
=85	=85
4r	.
8r	.
8A	When
4d	there
4e	is
=86	=86
4f#	al-
4f#	-ways
4g	some-
8f#	-thing
[8e	there
=87	=87
8e]	_
4f#	to
8g	re-
8eq	_
4f#	-mind
8e	me
[8d	_
=88	=88
4d]	_
4r	.
2r	.
=89	=89
1r	.
=90	=90
4f#	Al-
4f#	-ways
4g	some-
8a	-thing
8f#q	_
[8e	there
=91	=91
4e]	_
8d	to
8B	re-
8e#q	_
4f#	-mind
8e#q	_
[4f#	me
=92	=92
2f#]	_
2r	.
=93	=93
4r	.
8r	.
8f	I
4e	_
4d	was
=94	=94
2.c#	born
8c#	to
8d	_
=95	=95
4B	love
[4F#	her
2F#]	_
=96	=96
4r	.
8r	.
8F#	And
4B	I
4d	will
=97	=97
8e#q	_
[2f#	ne
8f#]	_
8g	ver
4f#	be
=98	=98
4e	free
8r	.
8A	you'll
8B	al-
8d	-ways
8d	be
8d	a
=99	=99
8dq	_
4.e	part
[8d	of
8d]	_
4.d	me
=100	=100
4r	.
8r	.
8A	Cuz
4d	there
4e	is
=101	=101
4f#	al-
4f#	-ways
4g	some-
8f#	-thing
[8e	there
=102	=102
8e]	_
4f#	to
8g	re-
8eq	_
4f#	-mind
8e	me
[8d	_
=103	=103
4d]	_
4r	.
2r	.
=104	=104
1r	.
=105	=105
4f#	Al-
4f#	-ways
4g	some-
8f#	-thing
[8e	there
=106	=106
8e]	_
4f#	to
8g	re-
8eq	_
4f#	-mind
8e	me
[8d	_
=107	=107
4d]	_
4r	.
2r	.
=108	=108
1r	.
=109	=109
4f#	Al-
4f#	-ways
4g	some-
8a	-thing
8f#q	_
[8e	there
=110	=110
4e]	_
8d	_
8B	re-
8e#q	_
4f#	-mind
8e#q	_
[4f#	me
=111	=111
2f#]	_
2r	.
=112	=112
1r	.
=113	=113
4f#	Al-
4f#	-ways
4g	some-
8a	-thing
8f#q	_
[8e	there
=114	=114
4e]	_
8d	_
8B	re-
8e#q	_
4f#	-mind
8e#q	_
[4f#	me
=115	=115
2f#]	_
2r	.
=116	=116
1r	.
=117	=117
4f#	Al-
4f#	-ways
4g	some-
8f#	-thing
[8e	there
=118	=118
8e]	_
4f#	to
8g	re-
8eq	_
4f#	-mind
8e	me
[8d	_
=119	=119
4d]	_
4r	.
2r	.
=120	=120
1r	.
=121	=121
4f#	Al-
4f#	-ways
4g	some-
8a	-thing
8f#q	_
[8e	there
=122	=122
4e]	_
8d	_
8B	re-
8e#q	_
4f#	-mind
8e#q	_
[4f#	me
=123	=123
2f#]	_
2r	.
=124	=124
1r	.
=125	=125
4f#	Al-
4f#	-ways
4g	some-
8f#	-thing
[8e	there
=126	=126
8e]	_
4f#	to
8g	re-
8eq	_
4f#	-mind
8e	me
[8d	_
=127	=127
4d]	_
4r	.
2r	.
=128	=128
1r	.
=129	=129
4f#	Al-
4f#	-ways
4g	some-
8a	-thing
8f#q	_
[8e	there
=130	=130
4e]	_
8d	_
8B	re-
8e#q	_
4f#	-mind
8e#q	_
[4f#	me
=131	=131
2f#]	_
2r	.
=132	=132
1r	.
=133	=133
4f#	Al-
4f#	-ways
4g	some-
8f#	-thing
[8e	there
=134	=134
8e]	_
4f#	to
8g	re-
8eq	_
4f#	-mind
8e	me
[8d	_
=135	=135
4d]	_
4r	.
2r	.
=136	=136
1r	.
r;	.
r;	.
*-	*-
!!!ENC: Nathaniel Condit-Schultz